X:1
T:Title
%%score 1 2
L:1/8
Q:1/4=110
M:4/4
K:F
V:1 treble nm="Grand Piano, Staff 1"
V:2 bass nm="Choir Pad, All for Jesus (Hull)"
V:1
 [FA]3 [FA] [FA][FA][FG][FA] | [Fc]4 [FA]4 | [EG]3 [EG] [Ec][Ec][EB][EG] | [FA]8 | %4
w: By~Asa~Hull * * * * *||||
 [FA]3 [FA] [FA][FA][FG][FA] | [Fc]4 [FA]4 | [EG]3 [EG] [Ec][Ec][EB][EG] | F8 | %8
w: ||||
 [Fd]3 [Fd] [FB][FB][Fd][Fd] | [Fc]4 [FA]4 | [EG]3 [EG] [Ec][Ec][EB][EG] | [FA]8 | %12
w: ||||
 [Fd]3 [Fd] [FB][FB][Fd][Fd] | [Fc]4 [FA]4 | [EG]3 [EG] [Ec][Ec][EB][EG] | F8 |] %16
w: ||||
V:2
 [F,C]3 [F,C] [F,C][F,C][F,B,][F,C] | [F,A,]4 [F,C]4 | [C,C]3 [C,C] [C,G,][C,G,][C,G,][C,C] | %3
 [F,C]8 | [F,C]3 [F,C] [F,C][F,C][F,B,][F,C] | [F,A,]4 [F,C]4 | %6
 [C,C]3 [C,C] [C,G,][C,G,][C,G,][C,B,] | [F,A,]8 | [B,,B,]3 [B,,B,] [D,B,][D,B,][B,,B,][B,,B,] | %9
 [F,A,]4 [F,C]4 | [C,C]3 [C,C] [C,G,][C,G,][C,G,][C,C] | [F,C]8 | %12
 [B,,B,]3 [B,,B,] [D,B,][D,B,][B,,B,][B,,B,] | [F,A,]4 [F,C]4 | %14
 [C,C]3 [C,C] [C,G,][C,G,][C,G,][C,C] | [F,A,]8 |] %16

